trunk/WorldWind/resources/milstd2525/icons/ems/efoadob--------.svg

<?xml version="1.0" encoding="UTF-8" standalone="no"?>
<!--
Copyright (C) 2012 United States Government as represented by the Administrator of the
National Aeronautics and Space Administration.
All Rights Reserved.
-->

<!--
MIL-STD-2525 tactical symbol icon image. During icon composition this image is multiplied by the desired frame color 
(e.g. black), then drawn on top of the frame and fill.
-->

<svg
   xmlns:dc="http://purl.org/dc/elements/1.1/"
   xmlns:cc="http://creativecommons.org/ns#"
   xmlns:rdf="http://www.w3.org/1999/02/22-rdf-syntax-ns#"
   xmlns:svg="http://www.w3.org/2000/svg"
   xmlns="http://www.w3.org/2000/svg"
   xmlns:sodipodi="http://sodipodi.sourceforge.net/DTD/sodipodi-0.dtd"
   xmlns:inkscape="http://www.inkscape.org/namespaces/inkscape"
   height="400px"
   viewBox="0 0 400 400"
   width="400px"
   id="svg2"
   version="1.1"
   inkscape:version="0.48.2 r9819"
   sodipodi:docname="efoadob--------.svg">
  <metadata
     id="metadata30">
    <rdf:RDF>
      <cc:Work
         rdf:about="">
        <dc:format>image/svg+xml</dc:format>
        <dc:type
           rdf:resource="http://purl.org/dc/dcmitype/StillImage" />
      </cc:Work>
    </rdf:RDF>
  </metadata>
  <defs
     id="defs28" />
  <sodipodi:namedview
     pagecolor="#ffffff"
     bordercolor="#666666"
     borderopacity="1"
     objecttolerance="10"
     gridtolerance="10"
     guidetolerance="10"
     inkscape:pageopacity="0"
     inkscape:pageshadow="2"
     inkscape:window-width="640"
     inkscape:window-height="480"
     id="namedview26"
     showgrid="false"
     inkscape:zoom="0.59"
     inkscape:cx="200"
     inkscape:cy="200"
     inkscape:window-x="0"
     inkscape:window-y="0"
     inkscape:window-maximized="0"
     inkscape:current-layer="svg2" />
  <g
     transform="matrix(100,0,0,100,75,70)"
     id="g4">
    <path
       inkscape:connector-curvature="0"
       d="M 1.26111,1.62993 1.71004,1.97419 C 1.69409,1.99612 1.56013,2.05068 1.51838,2.06772 1.45682,2.09284 1.35842,2.10843 1.27302,2.10843 l -0.02119,0 c -0.09489,0 -0.18158,-0.0163 -0.24966,-0.0417 C 0.958666,2.0505 0.832268,1.99818 0.813205,1.9721 z M 2.03459,1.03665 c 0.01862,0.0761 0.04366,0.12549 0.04366,0.22417 l 0,0.07417 c 0,0.1266 -0.04781,0.24848 -0.09005,0.33375 C 1.96159,1.72245 1.84955,1.88792 1.79748,1.90182 L 1.61379,1.35843 z M 0.480594,1.03257 0.90161,1.35693 0.717543,1.9003 C 0.655134,1.857 0.569126,1.73346 0.529571,1.65463 0.499287,1.59428 0.432563,1.39917 0.441126,1.3024 z m 1.523496,-0.073714 -0.51916,0 c -0.01908,0 -0.08402,-0.20513 -0.09469,-0.233752 C 1.37459,0.683151 1.31302,0.517025 1.31011,0.482073 c 0.16069,0 0.34021,0.084366 0.43353,0.154504 0.0845,0.063515 0.23426,0.20985 0.26046,0.32228 z m -1.483316,0 C 0.530061,0.91899 0.605298,0.81036 0.63103,0.777746 0.674711,0.722376 0.727656,0.682757 0.78179,0.63714 0.854097,0.576214 1.07255,0.482073 1.20416,0.482073 L 1.03764,0.958053 z M 1.32071,2.25147 c 0.24295,0 0.52604,-0.16175 0.63708,-0.2953 C 2.04442,1.85198 2.0819,1.81021 2.14544,1.67763 2.18512,1.59481 2.23001,1.41461 2.2251,1.29336 2.21339,1.00502 2.11029,0.779852 1.95775,0.629073 1.82314,0.496014 1.58305,0.333742 1.32071,0.333742 l -0.12184,0 c -0.255615,0 -0.503072,0.167531 -0.634438,0.297941 C 0.426975,0.76814 0.297873,1.02431 0.297873,1.2979 c 0,0.29957 0.127055,0.50182 0.271894,0.66089 0.119811,0.13157 0.386823,0.29268 0.634393,0.29268 z"
       style="fill:#000000;stroke:#000000;stroke-width:0.06;stroke-miterlimit:4;stroke-opacity:1;stroke-dasharray:0.12, 0.06;stroke-dashoffset:0"
       id="path6" />
  </g>
</svg>

<?xml version="1.0"?>
<!--
Copyright (C) 2012 United States Government as represented by the Administrator of the
National Aeronautics and Space Administration.
All Rights Reserved.
-->

<!DOCTYPE svg PUBLIC "-//W3C//DTD SVG 1.1//EN" "http://www.w3.org/Graphics/SVG/1.1/DTD/svg11.dtd" >
<!--
MIL-STD-2525 tactical symbol icon image. During icon composition this image is multiplied by the desired frame color 
(e.g. black), then drawn on top of the frame and fill.
-->
<svg xmlns:xlink="http://www.w3.org/1999/xlink" height="400px" viewBox="0 0 400 400" width="400px"><g transform="scale(100) translate(0.75 0.7)"><path d="M1.26111 1.62993 L1.71004 1.97419 C1.69409 1.99612 1.56013 2.05068 1.51838 2.06772     C1.45682 2.09284 1.35842 2.10843 1.27302 2.10843 L1.25183 2.10843 C1.15694     2.10843 1.07025 2.09213 1.00217 2.06673 C0.958666 2.0505 0.832268 1.99818 0.813205     1.9721 zM2.03459 1.03665 C2.05321 1.11275 2.07825 1.16214 2.07825 1.26082     L2.07825 1.33499 C2.07825 1.46159 2.03044 1.58347 1.9882 1.66874 C1.96159     1.72245 1.84955 1.88792 1.79748 1.90182 L1.61379 1.35843 zM0.480594 1.03257     L0.90161 1.35693 L0.717543 1.9003 C0.655134 1.857 0.569126 1.73346 0.529571     1.65463 C0.499287 1.59428 0.432563 1.39917 0.441126 1.3024 zM2.00409 0.958856     L1.48493 0.958856 C1.46585 0.958856 1.40091 0.753726 1.39024 0.725104     C1.37459 0.683151 1.31302 0.517025 1.31011 0.482073 C1.4708 0.482073 1.65032     0.566439 1.74364 0.636577 C1.82814 0.700092 1.9779 0.846427 2.0041 0.958857     zM0.520774 0.958856 C0.530061 0.91899 0.605298 0.81036 0.63103 0.777746 C0.674711     0.722376 0.727656 0.682757 0.78179 0.63714 C0.854097 0.576214 1.07255     0.482073 1.20416 0.482073 L1.03764 0.958053 zM1.32071 2.25147 C1.56366 2.25147     1.84675 2.08972 1.95779 1.95617 C2.04442 1.85198 2.0819 1.81021 2.14544     1.67763 C2.18512 1.59481 2.23001 1.41461 2.2251 1.29336 C2.21339 1.00502 2.11029     0.779852 1.95775 0.629073 C1.82314 0.496014 1.58305 0.333742 1.32071 0.333742     L1.19887 0.333742 C0.943255 0.333742 0.695798 0.501273 0.564432 0.631683     C0.426975 0.76814 0.297873 1.02431 0.297873 1.2979 C0.297873 1.59747 0.424928     1.79972 0.569767 1.95879 C0.689578 2.09036 0.95659 2.25147 1.20416 2.25147     z" style="fill:rgb(0,0,0)"/><path d="M0.717543 1.9003 L0.90161 1.35693 L0.480594 1.03257 L0.441126 1.3024 C0.432563 1.39917     0.499287 1.59428 0.52957 1.65463 C0.569125 1.73346 0.655133 1.857 0.717543     1.9003 z" style="fill:rgb(0,0,0)"/><path d="M1.26111 1.62993 L0.813204 1.9721 C0.832267 1.99818 0.958665 2.0505 1.00217 2.06673     C1.07025 2.09213 1.15694 2.10843 1.25183 2.10843 L1.27302 2.10843 C1.35842     2.10843 1.45681 2.09284 1.51838 2.06772 C1.56013 2.05068 1.69409 1.99612 1.71004     1.97419 z" style="fill:rgb(0,0,0)"/><path d="M1.61379 1.35843 L1.79748 1.90182 C1.84955 1.88792 1.96159 1.72245 1.9882 1.66874     C2.03044 1.58347 2.07825 1.46159 2.07825 1.33498 L2.07825 1.26082 C2.07825     1.16214 2.05321 1.11274 2.03459 1.03665 z" style="fill:rgb(0,0,0)"/><path d="M1.48493 0.958854 L2.0041 0.958854 C1.9779 0.846425 1.82814 0.70009 1.74364 0.636574     C1.65032 0.566436 1.4708 0.48207 1.31011 0.48207 C1.31302 0.517023 1.37459     0.683149 1.39024 0.725101 C1.40091 0.753723 1.46585 0.958853 1.48493 0.958853     z" style="fill:rgb(0,0,0)"/><path d="M1.03764 0.958051 L1.20416 0.482071 C1.07255 0.482071 0.854101 0.576213 0.781794     0.637138 C0.72766 0.682756 0.674715 0.722374 0.631034 0.777744 C0.605302 0.810358     0.530065 0.918988 0.520778 0.958854 z" style="fill:rgb(255,255,255)"/><path d="M1.39024 0.725102 C1.40091 0.753724 1.46585 0.958854 1.48493 0.958854 L2.0041 0.958854     C1.97791 0.846425 1.82814 0.70009 1.74364 0.636574 C1.65033 0.566436 1.4708     0.48207 1.31011 0.48207 C1.31302 0.517023 1.37459 0.683149 1.39024 0.725101     z" style="fill:rgb(255,255,255)"/><path d="M2.03459 1.03665 L1.61379 1.35843 L1.79748 1.90183 C1.84955 1.88793 1.96158 1.72245     1.98819 1.66874 C2.03044 1.58347 2.07825 1.46159 2.07825 1.33499 L2.07825     1.26082 C2.07825 1.16215 2.0532 1.11275 2.03459 1.03665 z" style="fill:rgb(255,255,255)"/><path d="M1.71004 1.97419 L1.26111 1.62993 L0.813205 1.9721 C0.832268 1.99818 0.958666 2.0505     1.00217 2.06673 C1.07025 2.09213 1.15694 2.10843 1.25183 2.10843 L1.27302     2.10843 C1.35842 2.10843 1.45682 2.09284 1.51838 2.06772 C1.56013 2.05068     1.69409 1.99612 1.71004 1.97419 z" style="fill:rgb(255,255,255)"/><path d="M0.717543 1.9003 L0.90161 1.35693 L0.480594 1.03257 L0.441126 1.3024 C0.432563 1.39917     0.499287 1.59428 0.52957 1.65463 C0.569125 1.73346 0.655133 1.857 0.717543     1.9003 z" style="fill:rgb(255,255,255)"/></g></svg>
